!!!OTL: Heut' Triumphiret
!!!COL: Orgelbüchlein
**kern	**text
*clefG2	*
*k[b-e-]	*
*g:	*
*M3/2	*
=1	=1
2b-	Heut'
2b-	tri-
2cc	um-
=2	=2
1dd	phie-
2cc	ret
=3	=3
1b-	Gott-
2a	es
=4	=4
1.b-;	Sohn,
=5	=5
2b-	der
2b-	vom
2b-	dem
=6	=6
2cc	Tod
2b-	.
2a	er-
=7	=7
1g	stan-
2f#	den
=8	=8
1g;	schon,
2a	Hal-
=9	=9
1b-	le-
2cc	lu-
=10	=10
2.dd	ja-
4ee-	.
2ff	Hal-
=11	=11
2ee-	le-
2dd	.
2cc	lu
=12	=12
1.dd;	ja,
=13	=13
2dd	mit
2dd	gro-
2dd	ßer
=14	=14
1cc	Pracht
2cc	und
=15	=15
2dd	Herr-
2cc	.
2b-	lich-
=16	=16
1.a;	keit
=17	=17
2a	des
2a	dankn
2b-	wir
=18	=18
2cc	ihm
2b-	.
2a	in
=19	=19
1g	E-
2f#	wig-
=20	=20
1g;	keit.
2a	Hal-
=21	=21
1b-	le-
2cc	lu-
=22	=22
1dd	ja,
2dd	Hal-
=23	=23
2dd	le-
1cc#	lu-
=24	=24
1dd;	ja.
==	==
*-	*-
